X:114
%%pagewidth 8.5in
%%vocalfont Baskerville10Pro 14
T:Oh! London is a fine town
M:C
L:1/8
K:E
%%score 1 2
V:1 clef-treble
V:2 clef-bass octave=-1
V:1
B2|[B,EG]3FE2E2|[CE]4E4|F2G2A2B2&C8|c2c4[FAd]2&[FA]6x2|
w:Oh! Lon-don is a fine town, And a gal-lant ci-ty; 'Tis
V:2
z2|E8|C8|A,8|F,6F,2|
V:1
[FBe]2d2c2B2|([EAc]d)e2E2E2|F2G2A2G2&[A,C]8|F2F4B2&[B,D]6x2|
w:gov-ern'd by the scar-*let gown, Come lis-ten to my dit-ty. This
V:2
G,8|A,8|F,8|B,6z2|
V:1
[B,DG]3[A,F][G,E]2E2|[B,E]4[A,CE]2E2|F2G2A2B2&[A,C]4[CF]4|[EGc]6[FBd]2|
w:ci-ty has a May-or, This May-or is a Lord, He
V:2
B,4C4|G,4A,4|F,4F4|C6B,A,|
V:1
e2d2[EAc]2[EB]2&[EB]4x4|([Ac]d)[GBe]2E2E2|F2G2[FA]2[EG]2&C4x4|[DF]6||
w:go-ver-neth the cit-*i-zens All by his own ac-cord.
V:2
G,4A,2G,2|F,2E,2C4|A,4F,4|B,6||

